X: 69
T:Teetotaller's Reel
% Nottingham Music Database
S:Kerrs/Eric Foxley
M:4/4
L:1/4
K:G
P:A
(3D/2E/2F/2|"G"GG/2F/2 G/2A/2B/2c/2|"G"d/2B/2e/2B/2 d/2B/2A/2G/2|\
"Em"B/2E/2E/2D/2 E/2F/2G/2A/2|"Em"B/2G/2A/2F/2 "D7"G/2F/2E/2D/2|
"G"GG/2F/2 G/2A/2B/2c/2|"G"d/2B/2e/2B/2 d/2B/2A/2G/2|\
"Em"B/2E/2E/2D/2 E/2F/2G/2A/2|"D7"B/2G/2A/2F/2 "G"G:|
P:B
B|"Em"B/2e/2e/2d/2 e3/2f/2|"Em"g/2e/2a/2f/2 g/2f/2e/2d/2|\
"D"A/2d/2d/2^c/2 d3/2e/2|"D"f/2d/2a/2f/2 g/2f/2e/2d/2|
"Em""C"B/2e/2e/2d/2 e3/2f/2|"Em""C"g/2e/2a/2f/2 g/2f/2e/2d/2|\
"Em""G"B/2A/2G/2F/2 E/2F/2G/2A/2|"D7"B/2G/2A/2F/2 "G" G :|<end>
<start>
